src/vs/editor/contrib/suggest/media/EnumItem_inverse_16x.svg

<svg viewBox="0 0 16 16" xmlns="http://www.w3.org/2000/svg"><path d="m16 16h-16v-16h16z" fill="#2d2d30" opacity="0"/><path d="m0 15v-9h6v-3.414l1.585-1.586h6.829l1.586 1.586v5.829l-1.586 1.585h-4.414v5z" fill="#2d2d30"/><path d="m8 3v3h5v1h-3v1h4v-5zm5 2h-4v-1h4zm-11 3v5h6v-5zm5 3h-4v-1h4z" fill="#2b282e"/><path d="m10 6h3v1h-3zm-1-2v1h4v-1zm5-2h-6l-1 1v3h1v-3h6v5h-4v1h4l1-1v-5zm-7 8h-4v1h4zm2-3v7h-8v-7zm-1 1h-6v5h6z" fill="#75beff"/></svg>

<svg xmlns="http://www.w3.org/2000/svg" viewBox="0 0 16 16"><style>.icon-canvas-transparent{opacity:0;fill:#2d2d30}.icon-vs-out{fill:#2d2d30}.icon-vs-fg{fill:#2b282e}.icon-vs-action-blue{fill:#75beff}</style><path class="icon-canvas-transparent" d="M16 16H0V0h16v16z" id="canvas"/><path class="icon-vs-out" d="M0 15V6h6V2.586L7.585 1h6.829L16 2.586v5.829L14.414 10H10v5H0zm3-6z" id="outline"/><path class="icon-vs-fg" d="M8 3v3h5v1h-3v1h4V3H8zm5 2H9V4h4v1zM2 8v5h6V8H2zm5 3H3v-1h4v1z" id="iconFg"/><path class="icon-vs-action-blue" d="M10 6h3v1h-3V6zM9 4v1h4V4H9zm5-2H8L7 3v3h1V3h6v5h-4v1h4l1-1V3l-1-1zm-7 8H3v1h4v-1zm2-3v7H1V7h8zM8 8H2v5h6V8z" id="iconBg"/></svg>
